Origami/32x32/apps/4kslideshowmaker.svg

<svg width="32" height="32" version="1.1" viewBox="0 0 32 32" xmlns="http://www.w3.org/2000/svg">
 <path d="m11.002905 5.000002c-3.805024 0-6.9967893 3.1924164-6.9967893 6.998217 0 1.499503 0.5079189 2.893554 1.3411813 4.044868l-2.626724 4.372909c-1.9989426 3.330518 0.3974792 7.569104 4.2812385 7.572289l17.991742 0.011715c3.715181 0.0013 6.133217-3.907998 4.473533-7.232532l-3.998165-8.00382c-1.41854-2.8318202-5.078918-3.6471881-7.564887-1.685117-0.467183-3.3827617-3.410091-6.078529-6.901129-6.078529z" style="opacity:.2"/>
 <path d="m11.002905 4.0000023c-3.805024 0-6.9967893 3.1924164-6.9967893 6.9982167 0 1.499503 0.5079189 2.893554 1.3411813 4.044868l-2.626724 4.372909c-1.9989426 3.330518 0.3974792 7.569104 4.2812385 7.572289l17.991742 0.011715c3.715181 0.0013 6.133217-3.907998 4.473533-7.232532l-3.998165-8.00382c-1.41854-2.8318199-5.078918-3.6471878-7.564887-1.685117-0.467183-3.3827614-3.410091-6.0785287-6.901129-6.0785287z" style="fill:#a1252b"/>
 <path class="ColorScheme-Text" d="m11 9.994141a2 2 0 0 0 -2 2 2 2 0 0 0 2 2 2 2 0 0 0 2 -2 2 2 0 0 0 -2 -2zm10 5-3 4.5-3-2.5-3 4-2-3l-3 4.994141 18 0.011718z" style="fill:currentColor;opacity:.2"/>
 <path d="m11 9.0000002a2 2 0 0 0 -2 1.9999998 2 2 0 0 0 2 2 2 2 0 0 0 2 -2 2 2 0 0 0 -2 -1.9999998zm10 4.9999998-3 4.5-3-2.5l-3 4-2-3-3 4.994141 18 0.01172z" style="fill:#ffffff"/>
 <path d="m11.001953 4c-3.8050239 0-6.9960936 3.1922466-6.9960936 6.998047 0 0.131401 0.0255253 0.257029 0.0332031 0.386719 0.320979-3.5286118 3.3647351-6.384766 6.9628905-6.384766 3.491038 0 6.435161 2.6953633 6.902344 6.078125 2.485969-1.9620711 6.145913-1.1462733 7.564453 1.685547l3.998047 8.003906c0.283486 0.567856 0.43864 1.152847 0.498047 1.732422 0.09208-0.894947-0.049627-1.834186-0.498047-2.732422l-3.998047-8.003906c-1.41854-2.83182-5.078484-3.6476178-7.564453-1.685547-0.467183-3.3827614-3.411306-6.078125-6.902344-6.078125zm-5.9589842 11.550781l-2.3222657 3.865235c-0.5916345 0.985745-0.7905396 2.049063-0.6875 3.060546 0.0720342-0.695797 0.2887594-1.396189 0.6875-2.060546l2.6269531-4.373047c-0.1131628-0.156357-0.2039828-0.327221-0.3046874-0.492188z" style="fill:#ffffff;opacity:.1"/>
</svg>

<svg xmlns="http://www.w3.org/2000/svg" width="32" height="32" version="1.1" viewBox="0 0 32 32">
 <path style="opacity:0.2" d="m 11.002905,5.000002 c -3.805024,0 -6.9967893,3.1924164 -6.9967893,6.998217 0,1.499503 0.5079189,2.893554 1.3411813,4.044868 L 2.720573,20.415996 C 0.7216304,23.746514 3.1180522,27.9851 7.0018115,27.988285 L 24.993553,28 c 3.715181,0.0013 6.133217,-3.907998 4.473533,-7.232532 l -3.998165,-8.00382 C 24.050381,9.9318278 20.390003,9.1164599 17.904034,11.078531 17.436851,7.6957693 14.493943,5.000002 11.002905,5.000002 Z"/>
 <path style="fill:#a1252b" d="m 11.002905,4.0000023 c -3.805024,0 -6.9967893,3.1924164 -6.9967893,6.9982167 0,1.499503 0.5079189,2.893554 1.3411813,4.044868 L 2.720573,19.415996 C 0.7216304,22.746514 3.1180522,26.9851 7.0018115,26.988285 L 24.993553,27 c 3.715181,0.0013 6.133217,-3.907998 4.473533,-7.232532 l -3.998165,-8.00382 C 24.050381,8.9318281 20.390003,8.1164602 17.904034,10.078531 17.436851,6.6957696 14.493943,4.0000023 11.002905,4.0000023 Z"/>
 <path style="opacity:0.2;fill:currentColor" class="ColorScheme-Text" d="m 11,9.994141 a 2,2 0 0 0 -2,2 2,2 0 0 0 2,2 2,2 0 0 0 2,-2 2,2 0 0 0 -2,-2 z m 10,5 -3,4.5 -3,-2.5 -3,4 -2,-3 L 7,22.988282 25,23 Z"/>
 <path style="fill:#ffffff" d="M 11,9.0000002 A 2,2 0 0 0 9,11 2,2 0 0 0 11,13 2,2 0 0 0 13,11 2,2 0 0 0 11,9.0000002 Z M 21,14 18,18.5 15,16 l -3,4 -2,-3 -3,4.994141 18,0.01172 z"/>
 <path style="opacity:0.1;fill:#ffffff" d="M 11.001953 4 C 7.1969291 4 4.0058594 7.1922466 4.0058594 10.998047 C 4.0058594 11.129448 4.0313847 11.255076 4.0390625 11.384766 C 4.3600415 7.8561542 7.4037976 5 11.001953 5 C 14.492991 5 17.437114 7.6953633 17.904297 11.078125 C 20.390266 9.1160539 24.05021 9.9318517 25.46875 12.763672 L 29.466797 20.767578 C 29.750283 21.335434 29.905437 21.920425 29.964844 22.5 C 30.056924 21.605053 29.915217 20.665814 29.466797 19.767578 L 25.46875 11.763672 C 24.05021 8.931852 20.390266 8.1160542 17.904297 10.078125 C 17.437114 6.6953636 14.492991 4 11.001953 4 z M 5.0429688 15.550781 L 2.7207031 19.416016 C 2.1290686 20.401761 1.9301635 21.465079 2.0332031 22.476562 C 2.1052373 21.780765 2.3219625 21.080373 2.7207031 20.416016 L 5.3476562 16.042969 C 5.2344934 15.886612 5.1436734 15.715748 5.0429688 15.550781 z"/>
</svg>
